X:1
T:C Major                      Jeremiah Ingalls, 1805
T:Anonymous author, before 1800
T:Renown
T:Transcribed from Ingalls' Christian Harmony , 1805 ; Counter by B. C. Johnston, 2017.
%%score [ 1 2 3 4 ]
L:1/8
Q:1/4=150
M:4/4
K:C
V:1 treble nm="Treble" snm="Tr."
V:2 treble nm="Counter" snm="C."
V:3 treble-8 nm="Tenor" snm="T."
V:4 bass nm="Bass" snm="B."
V:1
"^1. All    glo–ry   to       the  Fa–ther  be,     O     Hal  – le,  Hal – le  –  lu – jah. ____   He   sent  his  son    to    die  for   me,     O     Hal – le, Hal – le – lu – jah. \n2.  I   long   to   be  in  realms   a–bove,      O    Hal  – le,  Hal – le  –  lu – jah. ____ Where there is naught but praise and love, O Hal –le,  Hal – le – lu – jah." G4 | %1
 c2 c2 B4 | c4 e2 c2 | B6 d2 | e3 f e3 d | c2 e6- | e4 G4 | c2 c2 B4 | c4 e2 c2 | B6 d2 | %10
 e3 f e3 d | c2 e6 | %12
"^1. All   glo – ry   be    un  –  to  his  name, ___  Hal – le,  Hal – le  –  lu –  jah.____   For   he   is   wor –  thy   of   the      same,   O    glo – ry,  Hal – le – lu – jah.\n2.  I      long  in   Je – sus      to   be  wed, ____  Hal – le,  Hal – le  –  lu  – jah.____  And  on  his  breast  re–cline  my      head,  O    glo – ry,   Hal – le – lu – jah." e4 c2 c2 | %13
 e4 c4 | g2 g2 e4- | e4 e3 f | e2 cB c2 e2- | e4 e4 | f2 f2 e4 | c4 e2 c2 | B4 G4 | c2 c2 e3 d | %22
 c2 e6 |] %23
V:2
"^3. Come, come, poor sinners, come away, O    Hal – le, Hal – le – lu – jah. _____ Why  from  your  Jesus  will you stay?    O    Hal – le,  Hal – le  – lu – jah.\n4.  O   come,  poor  sinners,  come and see, O    Hal – le, Hal – le – lu – jah. _____ Your   mangled  Savior   on   the  tree!    O    Hal – le,  Hal – le  – lu – jah." C4 | %1
 E2 E2 G4 | c4 A2 c2 | B6 G2 | E3 F E3 G | A2 c6- | c4 C4 | E2 E2 G4 | c4 A2 c2 | B6 G2 | %10
 E3 F E3 G | A2 c6 | %12
"^3. Come, come, poor sinners, come, behold,  Hal – le,  Hal – le  –  lu – jah. ____  His   face   is   brigh – ter  than  the  gold,  O      glo – ry,  Hal – le – lu – jah.\n4. He groaned and died for you and me, ___   Hal – le,  Hal – le  –  lu – jah. ____ That  hap– py,  hap– py  we  might   be,    O      glo – ry,  Hal – le – lu – jah." E4 C2 E2 | %13
 G4 c4 | G2 G2 A4- | A4 c3 B | G2 GF E2 G2- | G4 c4 | A2 A2 G4 | c4 A2 cA | G4 c4 | c2 c2 c3 G | %22
 A2 c6 |] %23
V:3
"^5. Fare–well,  vain  world,  I  bid  adieu,   O    Hal – le,  Hal – le – lu – jah.                For    on – ly  Je – sus    I’ll   pur – sue;   O    Hal – le,  Hal – le – lu – jah." c4 | %1
 e2 e2 d4 | e4 c2 c2 | d6 G2 | c3 d c3 G | A2 c6- | c4 c4 | e2 e2 d4 | e4 c2 c2 | d6 G2 | %10
 c3 d c3 G | A2 c6 | %12
"^5. My  Je–sus  took  me  by  the  hand,  ___  Hal – le,   Hal – le  –  lu  – jah. ____ And  brought  me  to  the  promised  land,  O    glo – ry,  Hal – le – lu – jah." c4 c2 e2 | %13
 g4 e4 | d2 d2 c4- | c4 g3 a | g2 ed e2 g2- | g4 g4 | a2 a2 g4 | e4 c2 ec | d4 c4 | e2 e2 c3 G | %22
 A2 c6 |] %23
V:4
 C,4 | C,2 C,2 G,4 | C4 A,2 A,2 | G,6 z2 | z8 | z8 | z4 C,4 | C,2 C,2 G,4 | C4 A,2 A,2 | G,6 z2 | %10
 z8 | z8 | %12
"^_______________________________________________\nA folk hymn (Jackson 1953b, no. 287)." C,4 C2 C2 | %13
 C4 C4 | G,2 G,2 A,4- | A,4 C3 C | C2 G,2 C2 C2- | C4 C4 | F,2 F,2 C4 | C4 A,2 A,2 | G,4 E,4 | %21
 C,2 C,2 C,3 G, | E,2 C,6 |] %23

